!!! OTL: Berkowitz289
!!! Chapter: 1
!!! Section: III
!!! Page: 69
!!! Mode: 
!!! Encoder: DJB
**kern
*staff1
*I"Piano
=1-
*clefG2
*k[f#c#]
*D:
*met(c|)
*M2/2
4f#/
4a/
4f#/
4d/
=2
8e/L
8d/
8c#/
8B/J
2A/
=3
4.b\
8cc#\
4dd\
4g/
=4
2f#/
2e/
=5
8g/L
8f#/
8e/
8d/J
8e/L
8d/
8c#/
8B/J
=6
4A/
4cc#\
4dd\
4g/
=7
2f#/
2e/
=8
1d
==
*-
